neru-light-classic/32x32/apps/vmpk.svg

<?xml version="1.0" encoding="UTF-8" standalone="no"?>
<svg
   xmlns:dc="http://purl.org/dc/elements/1.1/"
   xmlns:cc="http://creativecommons.org/ns#"
   xmlns:rdf="http://www.w3.org/1999/02/22-rdf-syntax-ns#"
   xmlns:svg="http://www.w3.org/2000/svg"
   xmlns="http://www.w3.org/2000/svg"
   xmlns:sodipodi="http://sodipodi.sourceforge.net/DTD/sodipodi-0.dtd"
   xmlns:inkscape="http://www.inkscape.org/namespaces/inkscape"
   height="32"
   width="32"
   version="1"
   id="svg42"
   sodipodi:docname="pianoteq.svg"
   inkscape:version="0.92.1 r">
  <metadata
     id="metadata48">
    <rdf:RDF>
      <cc:Work
         rdf:about="">
        <dc:format>image/svg+xml</dc:format>
        <dc:type
           rdf:resource="http://purl.org/dc/dcmitype/StillImage" />
      </cc:Work>
    </rdf:RDF>
  </metadata>
  <defs
     id="defs46" />
  <sodipodi:namedview
     pagecolor="#ffffff"
     bordercolor="#666666"
     borderopacity="1"
     objecttolerance="10"
     gridtolerance="10"
     guidetolerance="10"
     inkscape:pageopacity="0"
     inkscape:pageshadow="2"
     inkscape:window-width="640"
     inkscape:window-height="480"
     id="namedview44"
     showgrid="false"
     inkscape:zoom="4.75"
     inkscape:cx="53.142843"
     inkscape:cy="51.177368"
     inkscape:current-layer="svg42" />
  <path
     style="opacity:1;fill:#4f4f4f;fill-opacity:1;fill-rule:evenodd;stroke:none;stroke-width:1.03534329;stroke-linecap:round;stroke-linejoin:bevel;stroke-miterlimit:4;stroke-dasharray:none;stroke-dashoffset:0;stroke-opacity:1"
     d="M 24.832031 1.9589844 L 24.832031 16.447266 C 24.832031 17.070633 25.131581 17.574219 25.503906 17.574219 L 26.878906 17.574219 C 27.251231 17.574219 27.548828 17.070633 27.548828 16.447266 L 27.548828 2.90625 C 26.750419 2.3772989 25.850659 2.016492 24.832031 1.9589844 z "
     id="path4563" />
  <path
     style="opacity:1;fill:#4f4f4f;fill-opacity:1;fill-rule:evenodd;stroke:none;stroke-width:1.03534329;stroke-linecap:round;stroke-linejoin:bevel;stroke-miterlimit:4;stroke-dasharray:none;stroke-dashoffset:0;stroke-opacity:1"
     d="M 20.755859 1.8984375 L 20.755859 16.447266 C 20.755859 17.070633 21.05541 17.574219 21.427734 17.574219 L 22.802734 17.574219 C 23.175059 17.574219 23.472656 17.070633 23.472656 16.447266 L 23.472656 1.8984375 L 20.755859 1.8984375 z "
     id="path4561" />
  <path
     style="opacity:1;fill:#4f4f4f;fill-opacity:1;fill-rule:evenodd;stroke:none;stroke-width:1.03534329;stroke-linecap:round;stroke-linejoin:bevel;stroke-miterlimit:4;stroke-dasharray:none;stroke-dashoffset:0;stroke-opacity:1"
     d="M 16.679688 1.8984375 L 16.679688 16.447266 C 16.679688 17.070633 16.979239 17.574219 17.351562 17.574219 L 18.724609 17.574219 C 19.096933 17.574219 19.396484 17.070633 19.396484 16.447266 L 19.396484 1.8984375 L 16.679688 1.8984375 z "
     id="path4559" />
  <path
     style="opacity:1;fill:#4f4f4f;fill-opacity:1;fill-rule:evenodd;stroke:none;stroke-width:1.03534329;stroke-linecap:round;stroke-linejoin:bevel;stroke-miterlimit:4;stroke-dasharray:none;stroke-dashoffset:0;stroke-opacity:1"
     d="M 8.5253906 1.8984375 L 8.5253906 16.447266 C 8.5253906 17.070633 8.8249411 17.574219 9.1972656 17.574219 L 10.572266 17.574219 C 10.94459 17.574219 11.244141 17.070633 11.244141 16.447266 L 11.244141 1.8984375 L 8.5253906 1.8984375 z "
     id="path4557" />
  <path
     style="opacity:1;fill:#d8d8d8;fill-opacity:1;fill-rule:evenodd;stroke:none;stroke-width:1.03534329;stroke-linecap:round;stroke-linejoin:bevel;stroke-miterlimit:4;stroke-dasharray:none;stroke-dashoffset:0;stroke-opacity:1"
     d="M 26.191406 17.574219 L 26.191406 29.767578 C 28.446652 29.054096 30.101564 27.024969 30.101562 24.527344 L 30.101562 7.4726562 C 30.101563 5.5256937 29.052894 3.9027031 27.548828 2.90625 L 27.548828 16.447266 C 27.548828 17.070633 27.251231 17.574219 26.878906 17.574219 L 26.191406 17.574219 z "
     id="path4617" />
  <path
     style="opacity:1;fill:#f0f0f0;fill-opacity:1;fill-rule:evenodd;stroke:none;stroke-width:1.03534329;stroke-linecap:round;stroke-linejoin:bevel;stroke-miterlimit:4;stroke-dasharray:none;stroke-dashoffset:0;stroke-opacity:1"
     d="M 22.115234 17.574219 L 22.115234 30.101562 L 24.527344 30.101562 C 25.11837 30.101563 25.657735 29.936413 26.191406 29.767578 L 26.191406 17.574219 L 25.503906 17.574219 C 25.131581 17.574219 24.832031 17.070633 24.832031 16.447266 L 24.832031 1.9589844 C 24.725415 1.9529652 24.635518 1.8984375 24.527344 1.8984375 L 23.472656 1.8984375 L 23.472656 16.447266 C 23.472656 17.070633 23.175059 17.574219 22.802734 17.574219 L 22.115234 17.574219 z "
     id="path4614" />
  <path
     style="opacity:1;fill:#d8d8d8;fill-opacity:1;fill-rule:evenodd;stroke:none;stroke-width:1.03534329;stroke-linecap:round;stroke-linejoin:bevel;stroke-miterlimit:4;stroke-dasharray:none;stroke-dashoffset:0;stroke-opacity:1"
     d="M 18.039062 17.574219 L 18.039062 30.101562 L 22.115234 30.101562 L 22.115234 17.574219 L 21.427734 17.574219 C 21.05541 17.574219 20.755859 17.070633 20.755859 16.447266 L 20.755859 1.8984375 L 19.396484 1.8984375 L 19.396484 16.447266 C 19.396484 17.070633 19.096933 17.574219 18.724609 17.574219 L 18.039062 17.574219 z "
     id="path4611" />
  <path
     style="opacity:1;fill:#f0f0f0;fill-opacity:1;fill-rule:evenodd;stroke:none;stroke-width:1.03534329;stroke-linecap:round;stroke-linejoin:bevel;stroke-miterlimit:4;stroke-dasharray:none;stroke-dashoffset:0;stroke-opacity:1"
     d="M 13.960938 1.8984375 L 13.960938 30.101562 L 18.039062 30.101562 L 18.039062 17.574219 L 17.351562 17.574219 C 16.979239 17.574219 16.679688 17.070633 16.679688 16.447266 L 16.679688 1.8984375 L 13.960938 1.8984375 z "
     id="path4608" />
  <path
     style="opacity:1;fill:#d8d8d8;fill-opacity:1;fill-rule:evenodd;stroke:none;stroke-width:1.03534329;stroke-linecap:round;stroke-linejoin:bevel;stroke-miterlimit:4;stroke-dasharray:none;stroke-dashoffset:0;stroke-opacity:1"
     d="M 9.8847656 17.574219 L 9.8847656 30.101562 L 13.960938 30.101562 L 13.960938 1.8984375 L 11.244141 1.8984375 L 11.244141 16.447266 C 11.244141 17.070633 10.94459 17.574219 10.572266 17.574219 L 9.8847656 17.574219 z "
     id="path4605" />
  <path
     style="opacity:1;fill:#f0f0f0;fill-opacity:1;fill-rule:evenodd;stroke:none;stroke-width:1.03534329;stroke-linecap:round;stroke-linejoin:bevel;stroke-miterlimit:4;stroke-dasharray:none;stroke-dashoffset:0;stroke-opacity:1"
     d="M 5.8085938 17.574219 L 5.8085938 29.767578 C 6.3422645 29.936413 6.88163 30.101562 7.4726562 30.101562 L 9.8847656 30.101562 L 9.8847656 17.574219 L 9.1972656 17.574219 C 8.8249411 17.574219 8.5253906 17.070633 8.5253906 16.447266 L 8.5253906 1.8984375 L 7.4726562 1.8984375 C 7.3644818 1.8984375 7.274585 1.9529652 7.1679688 1.9589844 L 7.1679688 16.447266 C 7.1679688 17.070633 6.86869 17.574219 6.4960938 17.574219 L 5.8085938 17.574219 z "
     id="path4566" />
  <path
     style="opacity:1;fill:#d8d8d8;fill-opacity:1;fill-rule:evenodd;stroke:none;stroke-width:1.03534329;stroke-linecap:round;stroke-linejoin:bevel;stroke-miterlimit:4;stroke-dasharray:none;stroke-dashoffset:0;stroke-opacity:1"
     d="M 5.8085938 29.767578 L 5.8085938 17.574219 L 5.1230469 17.574219 C 4.7504507 17.574219 4.4492188 17.070633 4.4492188 16.447266 L 4.4492188 2.9082031 C 2.9464296 3.9048703 1.8984375 5.5266741 1.8984375 7.4726562 L 1.8984375 24.527344 C 1.8984375 27.024969 3.5533484 29.054096 5.8085938 29.767578 z "
     id="path4555" />
  <path
     style="opacity:1;fill:#4f4f4f;fill-opacity:1;fill-rule:evenodd;stroke:none;stroke-width:1.03534329;stroke-linecap:round;stroke-linejoin:bevel;stroke-miterlimit:4;stroke-dasharray:none;stroke-dashoffset:0;stroke-opacity:1"
     d="M 4.4492188 2.9082031 L 4.4492188 16.447266 C 4.4492188 17.070633 4.7504507 17.574219 5.1230469 17.574219 L 6.4960938 17.574219 C 6.86869 17.574219 7.1679688 17.070633 7.1679688 16.447266 L 7.1679688 1.9589844 C 6.1483751 2.0165465 5.2481092 2.3783697 4.4492188 2.9082031 z "
     id="rect4497-3" />
</svg>

<svg xmlns="http://www.w3.org/2000/svg" height="32" width="32" version="1"><path d="M24.832 1.959v14.488c0 .624.3 1.127.672 1.127h1.375c.372 0 .67-.503.67-1.127V2.907c-.799-.53-1.698-.89-2.717-.948zM20.756 1.898v14.55c0 .623.3 1.126.672 1.126h1.375c.372 0 .67-.503.67-1.127V1.898h-2.717zM16.68 1.898v14.55c0 .623.3 1.126.672 1.126h1.373c.372 0 .671-.503.671-1.127V1.898H16.68zM8.525 1.898v14.55c0 .623.3 1.126.672 1.126h1.375c.373 0 .672-.503.672-1.127V1.898H8.525z" fill="#4f4f4f" fill-rule="evenodd"/><path d="M26.191 17.574v12.194c2.256-.714 3.91-2.743 3.91-5.24V7.472c0-1.947-1.048-3.57-2.552-4.567v13.541c0 .624-.298 1.127-.67 1.127h-.688z" fill="#d8d8d8" fill-rule="evenodd"/><path d="M22.115 17.574v12.528h2.412c.591 0 1.13-.166 1.664-.334V17.574h-.687c-.372 0-.672-.503-.672-1.127V1.96c-.107-.006-.196-.06-.305-.06h-1.054v14.548c0 .624-.298 1.127-.67 1.127h-.688z" fill="#f0f0f0" fill-rule="evenodd"/><path d="M18.04 17.574v12.528h4.075V17.574h-.687c-.373 0-.672-.503-.672-1.127V1.898h-1.36v14.55c0 .623-.3 1.126-.671 1.126h-.686z" fill="#d8d8d8" fill-rule="evenodd"/><path d="M13.96 1.898v28.204h4.08V17.574h-.688c-.373 0-.672-.503-.672-1.127V1.898h-2.72z" fill="#f0f0f0" fill-rule="evenodd"/><path d="M9.885 17.574v12.528h4.076V1.898h-2.717v14.55c0 .623-.3 1.126-.672 1.126h-.687z" fill="#d8d8d8" fill-rule="evenodd"/><path d="M5.809 17.574v12.194c.533.168 1.073.334 1.664.334h2.412V17.574h-.688c-.372 0-.672-.503-.672-1.127V1.898H7.473c-.109 0-.198.055-.305.061v14.488c0 .624-.3 1.127-.672 1.127H5.81z" fill="#f0f0f0" fill-rule="evenodd"/><path d="M5.809 29.768V17.574h-.686c-.373 0-.674-.503-.674-1.127V2.908C2.946 3.905 1.9 5.527 1.9 7.473v17.054c0 2.498 1.654 4.527 3.91 5.24z" fill="#d8d8d8" fill-rule="evenodd"/><path d="M4.45 2.908v13.54c0 .623.3 1.126.673 1.126h1.373c.373 0 .672-.503.672-1.127V1.96c-1.02.058-1.92.42-2.719.95z" fill="#4f4f4f" fill-rule="evenodd"/></svg>
